X:1
T:Title
%%score ( 1 2 ) { 3 | 4 }
L:1/8
Q:1/4=125
M:3/4
K:A
V:1 treble nm="Drawbar Organ, Soprano"
V:2 treble 
V:3 bass nm="Church Organ, Golders Green, LMD"
V:4 bass 
V:1
 [CE]2 [CE]2 [DF]2 | [CE]2 [CA]4 | [CE]2 [CE]2 [DF]2 | [CE]2 [A,C]4 | [CE]2 [CE]2 [DF]2 | %5
w: By~Anonymous,~1881 * *|||||
 [DG]2 [EA]4 | [EA]2 [EA]2 [EG]2 | [EA]2 [EB]4 | [CE]2 [CE]2 [DF]2 | [CE]2 [Ec]4 | [EB]2 [DA]2 F2 | %11
w: ||||||
 [FA]2 [FA]4 | F2 [EG]4 | [EG]2 G2 A2 | [EB]2 [EA]2 F2 | G-[CG] [CA]4 | c2 c2 B2 | c2 e4 | %18
w: |||||||
 A2 A2 B2 | c2 F4 | c2 c2 =c2 | c2 e4 | cB A2 G2 | F2 c4 | [CE]2 [CE]2 [DF]2 | z2 A4 | %26
w: ||||||||
 A2 [Ac]2 [GB]2 | A2 [GB]4 | [Ge]2 [Ae]2 [Ec]2 | [EA]2 [FA]2 [DF]2 | [DF]2 E2 [DF]2 | %31
w: |||||
 [DG]2 [CA]4- | [CA]4 z2 |] %33
w: ||
V:2
 x6 | x6 | x6 | x6 | x6 | x6 | x6 | x6 | x6 | x6 | x6 | x6 | x6 | z2 E4 | x6 | .E2 z2 z2 | x6 | %17
 x6 | x6 | x6 | x6 | x6 | x6 | x6 | x6 | [CE]2 C2 E2 | x6 | x6 | x6 | x6 | x6 | x6 | x6 |] %33
V:3
 A,2 A,4 | A,2 E,4 | A,2 A,4 | A,2 E,4 | A,2 A,4 | B,2[K:treble] C4 | C2 C2 B,2 | A,2[K:bass] G,4 | %8
 A,2 A,4 | A,2 A,4 | G,2 D,2[K:treble] D2 | D2 D4 | B,2 B,4 | B,2 B,2 C2 | D2 C2[K:bass] A,2 | %15
 G,B, A,4 | E2[K:treble] E4 | E2 E4 | C2 C2 D2 | C2 C4 | D2 E4 | C2[K:bass] B,4 | CB, A,2 G,2 | %23
 F,2 C4 | A,2 A,4 | A,2 A,2[K:treble] C2 | E2 E2 D2 | C2[K:bass] B,4 | B,2 C2 A,2 | C2 B,4 | %30
 D2 C2 B,2 | B,2 A,4- | A,4 z2 |] %33
V:4
 A,,2 A,,4 | A,,2 A,,4 | A,,2 A,,4 | A,,2 A,,4 | A,,2 A,,2 D,2 | B,,2 A,,4 | A,2 A,2 z2 | z2 E,4 | %8
 A,,2 A,,4 | A,,2 z2 z2 | E,2 z2 B,,2 | D,2 D,4 | ^D,2 E,4 | E,2 E,4 | E,2 E,2 D,2 | B,,2 A,,4 | %16
 A,2 A,2 G,2 | A,2 C4 | A,2 F,2 B,2 | G,2 F,4 | A,2 A,2 G,2 | A,2 z2 z2 | z6 | z2 C,4 | A,,2 A,,4 | %25
 A,,2 A,,4 | A,,2 A,,2 B,,2 | C,>D, E,4 | E,2 A,2 z2 | C,2 D,4 | B,,2 E,4 | E,2 A,,4- | A,,4 z2 |] %33

